X:1
T: Last Night's Fun
C:
R:Reel
Q: 232
K:G
M:4/4
L:1/8
|:GE|DG GB AG ge|dB Ac BG EG|DG GB AG ge|dB AB G2 GE|
DG GB AG ge|dB Ac BG EG|DG GB AG ge|dB AB G2 ((3def) |
gf ge dg Bd|cA BG AG ef|gf ge dg bg|ag ab g2 ga|
bg eg dg Bd|cA BG AG EG|AG dB AG ge|dB AB G2 ((3def) |
bg eg dg Bd|cA BG AG EG|AG dB AG ge|dB AB G2:|
